X: 22155
T: L'Air Mignonne
R: barndance
M: 4/4
K: Amajor
EAB|:c>cce cBAB|c>cce cBAB|F3A E3 c|1 BAGA BEAB:|2 BAGB ABce||
|:f>ffa fece|f>ffa fecA|F>FF A E3c|1 BAGA BEce:|2 BAGB AEAB||

